X: 3
I: linebreak $N: FIXME CLEF
T: Crossed Purposes
C: Johann Sebastien Bach for dance by Master Sean Andreas O Wynedd
N: 
K: E minor
M: 6/8
L: 1/8
EF |: GFE ^DEF | B,^C^D E=D=C | B,A,G, F,G,A, | B,A,G,/F,/ E,EF | GFE ^DEF | B,^C^D E=D=C | 
B,A,G, F,2G, |  [1 G,4EF :|]  [2 G,4B,G, :: DA,C B,GD | EB,D CB,A, | ^G,A,B, CB,A, | 
A,4DA, | B,GD EB,D | CAE F^CE | D^CB, ^A,2B, | B,4BF | ^GFE AE=G | 
FED GD=F | EAE F^CE | ^D2B,2EB, | CDA, B,CG, | A,B,F, G,F,E, | ^D,E,F, G,F,E, | 
 [1 E,4B,G, :|]  [2 E,4 |] 

